X: 1
T: Elzic's Farewell
M: 4/4
L: 1/8
R: reel
K: Ador
e3e eAdA|~c3d cAGE|ga2a agef|gfga gecA|
e3e eAdA|~c3d cAGE|A3B AGED|1EGAB A2z2:|2EGAB A2A2-||
ABAG EGAB|c3d eged|c2dA cAGD|EGAB A2A2-|
ABAG EGAB|c3d eged|c2dA cAGD|EGAB A2z2|
A3G A2GA|cd2d- d_ecA|cd2d- dAcd|d_edc dcA=e|
GAAG A2GA|cd2d- ddcA|cd2d- dAcd|d_edc A2z2:|
